X:11
T:Too Late to Sleep
S:Naragonia Quartet: https://www.youtube.com/watch?v=oXUj4okEAZg
Z:robin.beech@mcgill.ca
R:Schottische
M:4/4
L:1/8
K:D
FAcA FAdA | c2B2 A3G | FAGF G3F | EGFE F2D2 | FAcA FAdA | c2B2 A3G | FAGF G3F | EGFE D4 ::
F2c2- cAGF | F2d2- d4 | ABGA FGEF | DEFG ABAG |F2c2- cAGF | F2d2- d4 | ABGA FGEF | G2FE D4 :|
